theme/essential/pix_core/t/emailno.svg

<!DOCTYPE svg PUBLIC "-//W3C//DTD SVG 1.1//EN" "http://www.w3.org/Graphics/SVG/1.1/DTD/svg11.dtd" [
	<!ENTITY ns_flows "http://ns.adobe.com/Flows/1.0/">
]><svg xmlns="http://www.w3.org/2000/svg" width="12" height="12" viewBox="0 0 12 12" preserveAspectRatio="xMinYMid meet" overflow="visible"><path d="M12 2.8v8.2h-8.2l1-1h5.7l-2.9-2.8.7-.7 2.7 2.6v-5.3l1-1zm-11 6.3v-5.4l2.7 2.7.7-.7-3.4-3.4v-.3h7.1l1-1h-9.1v9.1l1-1zm11-7.9v-1.2h-.2l-11.8 11.8v.2h1.2l10.8-10.8z" fill="#999"/></svg>

<?xml version="1.0" encoding="utf-8"?>
<!-- Generator: Adobe Illustrator 15.1.0, SVG Export Plug-In  -->
<!DOCTYPE svg PUBLIC "-//W3C//DTD SVG 1.1//EN" "http://www.w3.org/Graphics/SVG/1.1/DTD/svg11.dtd" [
	<!ENTITY ns_flows "http://ns.adobe.com/Flows/1.0/">
]>
<svg version="1.1"
	 xmlns="http://www.w3.org/2000/svg" xmlns:xlink="http://www.w3.org/1999/xlink" xmlns:a="http://ns.adobe.com/AdobeSVGViewerExtensions/3.0/"
	 x="0px" y="0px" width="12px" height="12px" viewBox="0 0 12 12" style="overflow:visible;enable-background:new 0 0 12 12;"
	 xml:space="preserve" preserveAspectRatio="xMinYMid meet">
<defs>
</defs>
<path style="fill:#29a1c4;" d="M12,2.8V11H3.8l1-1h5.7L7.6,7.2l0.7-0.7L11,9.1V3.8L12,2.8z M1,9.1V3.7l2.7,2.7l0.7-0.7L1,2.3V2h7.1
	l1-1H0v9.1L1,9.1z M12,1.2V0h-0.2L0,11.8V12h1.2L12,1.2z"/>
</svg>
